src/components/Icon/utils/svgsOptimized/upload.svg

<?xml version="1.0" encoding="utf-8"?><svg width="24" height="24" xmlns="http://www.w3.org/2000/svg" viewBox="0 0 24 24"><path d="M11.5 6.7 9.85 8.35v.01c-.2.2-.51.2-.71 0-.2-.2-.2-.51 0-.71l2.5-2.5c.2-.2.51-.2.71 0l2.51 2.5c.2.2.2.51 0 .71-.2.2-.51.2-.71 0L12.5 6.71v5.78c0 .28-.22.5-.5.5s-.5-.22-.5-.5V6.7Z"/><path d="M17.7 12c.17 0 .3.14.3.3h.01v4.11c0 .33-.27.6-.6.6H6.6c-.33 0-.6-.27-.6-.6V12.3c0-.17.13-.3.3-.3h.6c.17 0 .3.14.3.3v3.5h9.6v-3.5c0-.17.13-.3.3-.3h.6Z"/></svg>

<svg width="24" height="24" viewBox="0 0 24 24"  xmlns="http://www.w3.org/2000/svg">
<path d="M11.5 6.7L9.85 8.35V8.36C9.65 8.56 9.34 8.56 9.14 8.36C8.94 8.16 8.94 7.85 9.14 7.65L11.64 5.15C11.84 4.95 12.15 4.95 12.35 5.15L14.86 7.65C15.06 7.85 15.06 8.16 14.86 8.36C14.66 8.56 14.35 8.56 14.15 8.36L12.5 6.71V12.49C12.5 12.77 12.28 12.99 12 12.99C11.72 12.99 11.5 12.77 11.5 12.49V6.7Z" />
<path d="M17.7 12C17.87 12 18 12.14 18 12.3H18.01V16.41C18.01 16.74 17.74 17.01 17.41 17.01H6.6C6.27 17.01 6 16.74 6 16.41V12.3C6 12.13 6.13 12 6.3 12H6.9C7.07 12 7.2 12.14 7.2 12.3V15.8H16.8V12.3C16.8 12.13 16.93 12 17.1 12H17.7Z" />
</svg>
